X: 21952
T: Kitty In The Lane
R: reel
M: 4/4
K: Dmixolydian
|:dcAB c3A|GEcE dEcE|dcAB cd (3gfe|dcGE ED D2|
dcAB cA A2|GE E2 c2 Bc|dcAB cd (3gfe|(3fed cG EDD2:|
|:Addg (3fgf ed|cdef ge e2|Addg (3fgf ed|cdeg fddc|
Addg (3fgf ed|cdef gbag|af (3gfe (3fed cA|GEcE ED D2:|

